X: 21615
T: Killavil Fancy, The
R: reel
M: 4/4
K: Gmajor
DGBG A2BA|GE~E2 cEGE|DGBG A2BA|GEED EFGA|
B2dB A2BA|GE~E2 cEGE|DGBG A2BA|GEEG ~E2DE||
GABd e2ge|dB~B2 dBAB|GABd e2ge|dBAG ~E2DE|
GABd e2ge|dB~B2 dega|bgag (3efg fa|gedB AGEG||

